X:1
T:Te Deum Patrem - Gabrieli
T:James Gibb editions
T:#
%%score [ 1 2 3 4 ]
L:1/8
Q:1/4=200
M:none
K:C
V:1 treble nm="Soprano" snm="S"
V:2 treble nm="Alto" snm="A"
V:3 treble-8 nm="Tenor" snm="T"
V:4 bass nm="Bass" snm="B"
V:1
"^Te Deum Patrem ingenitum""^Andrea Gabrieli\n(c. 1510-1586)" A16 | (F8 E8) | F4 A8 A4 | c4 c8 c4 | %4
w: Te|De\- *|um Pa- trem|in- ge- ni-|
 A8 z4 G4 | A8 F4 A4- | A4 A4 F4 E4- | E4 D4 E8- | E16 | z16 | z4 B4 c8- | c4 B4 G4 c4 | %12
w: tum, te|De- um Pa\-|* trem in- ge\-|* ni- tum,|||te Fi\-|* li- um u-|
 B4 A8 ^G4 | A16 | z16 | z4 D4 G6 G2 | G4 (c6 B2 A4) | (G6 A2 _B4) A4 | G4 ^F4 G8- | %19
w: ni- ge- ni-|tum,||te Spi- ri-|tum san\- * *|ctum * * Pa-|ra- cli- tum,|
 G4 (C2 D2 E2 F2 G4- | G4) G4 z8 | G16 | D16 | z4 G4 G4 G4 | c12 c4 | A4 c8 B4- | B4 (A8 ^G4) | %27
w: * san\- * * * *|* ctam,|san-|ctam|et in- di-|vi- du-|am Tri- ni\-|* ta\- *|
 A16- | A8 z4 B4- | B4 B4 c8 | B4 B4 c4 G4 | A8 A4 (c4- | c4 B4) c8 | z16 | z8 z4 A4 | A8 ^G4 A4 | %36
w: tem,|* to\-|* to cor-|de et o- re|con- fi- te\-|* * mur,||lau-|da- mus, lau-|
 A8 ^G4 A4- | A4 ^F4 =G4 G4 | G6 G2 G8 | z4 G8 E4 | A6 A2 G4 c4 | (B2 A2 A8) G4 | A8 z8 | z16 | %44
w: da- mus, at\-|* que be- ne-|di- ci- mus:|ti- bi|glo- ri- a in|sae\- * * cu-|la,||
 z16 | z4 c8 d4 | e6 e2 c8 | z8 z4 E4- | E4 F4 G6 G2 | E4 F4 (E2 F2 G2 E2 | F2 D2 A8) ^G4 | %51
w: |ti- bi|glo- ri- a,|ti\-|* bi glo- ri-|a in sae\- * * *|* * * cu-|
 A4 c4 (c6 B2 |[Q:1/4=199] A2[Q:1/4=197] G2[Q:1/4=194] A8)[Q:1/4=190] ^G4 | %53
w: la, in sae\- *|* * * cu-|
[Q:1/4=186] A8[Q:1/4=183] z4[Q:1/4=180] E4 | %54
w: la, in|
[Q:1/4=177] (A6[Q:1/4=175] =G2[Q:1/4=173] F4)[Q:1/4=171] F4 |[Q:1/4=170] E16 |] %56
w: sae\- * * cu-|la.|
V:2
 z8 A,8- | A,8 (C8 | D8) (C6 D2 | E4) F8 E4- | E4 D4 (G2 F2 E2 D2 | C6 B,C D4) C4 | %6
w: Te|* De\-|* um *|* Pa- trem|* in- ge\- * * *|* * * * ni-|
 F4 E4 (A,2 B,2 C4- | C2 B,2 A,8) ^G,4 | A,8 z8 | z16 | z8 z4 E4 | G6 G2 G8 | F4 E4 E4 E4 | C8 z8 | %14
w: tum, in- ge\- * *|* * * ni-|tum,||te|Fi- li- um|u- ni- ge- ni-|tum,|
 z8 z4 A,4 | C4 B,4 C4 C4 | E6 E2 E8 | C8 F4 E4 | D4 C4 D8 | z8 z4 (E4- | E4 D2 C2 D8) | %21
w: Pa-|ra- cli- tum, te|Spi- ri- tum|san- ctum Pa-|ra- cli- tum,|san\-||
 E4 E4 E4 E4 | G12 G4 | E16 | G8 F8 | C8 G4 G4- | G4 D4 E8 | =C4 E8 E4 | F8 E4 G4- | G4 G4 G8 | %30
w: ctam et in- di-|vi- du-|am|Tri- ni-|ta- tem, Tri\-|* ni- ta-|tem, to- to|cor- de, to\-|* to cor-|
 G8 z4 E4 | F4 C4 D4 E4 | D8 C4 C4 | D4 A,4 C4 C4 | B,8 A,4 E4 | F8 E4 E4 | F8 E4 C4- | %37
w: de et|o- re con- fi-|te- mur, et|o- re con- fi-|te- mur, lau-|da- mus, lau-|da- mus, at\-|
 C4 D4 B,4 E4 | (E6 DC D4) D4 | E8 z4 C4- | C4 D4 E6 E2 | D4 C4 D4 E4 | A,4 D4 G,4 G4- | %43
w: * que be- ne-|di\- * * * ci-|mus: ti\-|* bi glo- ri-|a in sae- cu-|la, ti- bi glo\-|
 G4 ^F4 G8 | z8 z4 E4- | E4 C4 F6 F2 | E4 G4 (F2 E2 E4- | E4) D4 E8 | C8 D4 E4- | E4 D4 (B,6 C2 | %50
w: * ri- a,|ti\-|* bi glo- ri-|a in sae\- * *|* cu- la,|ti- bi glo\-|* ri- a *|
 D4 E4 D4 B,4 | C4 E4 (E6 DE | F8) E8 | E8 z4 C4 | F6 E2 D4) D4 | ^C16 |] %56
w: * in sae- cu-|la, in sae\- * *|* cu-|la, in|sae\- * * cu-|la.|
V:3
 z16 | z16 | z16 | A16 | (F8 E8) | F4 A8 A4 | c4 c8 c4 | A8 z4 B4 | c12 B4 | G4 c4 B4 A4- | %10
w: |||Te|De\- *|um Pa- trem|in- ge- ni-|tum, te|Fi- li-|um u- ni- ge\-|
 A4 ^G4 A4 A4 | e6 e2 e8 | d4 c4 B4 B4 | A4 A4 c6 c2 | c4 e8 d4 | z8 z4 G4 | c6 c2 c8 | e8 d4 c4 | %18
w: * ni- tum, te|Fi- li- um|u- ni- ge- ni-|tum, te Spi- ri-|tum san- ctum,|te|Spi- ri- tum|san- ctum Pa-|
 B4 A4 G8 | z8 (c8- | c4 B2 A2 B8) | c4 (C2 D2 E2 F2 G4- | G4) G4 z4 G4 | G4 G4 (c6 d2 | e4 e4 A8 | %25
w: ra- cli- tum,|san\-||ctam, san\- * * * *|* ctam et|in- di- vi\- *|* du- am|
 A8 e4 (d4- | d2 c2 B2 A2 B8) | A4 ^c8 c4 | d8 ^c4 d4- | d4 d4 e8 | d8 z8 | z4 e4 f4 c4 | %32
w: Tri- ni- ta\-||tem, to- to|cor- de, to\-|* to cor-|de|et o- re|
 f4 d4 f2 ed e4) | A16 | z8 z4 ^c4 | d8 B4 ^c4 | d8 B4 A4- | A4 A4 G4 c4 | (B2 AB c8) B4 | c8 z8 | %40
w: con- fi- te\- * * *|mur,|lau-|da- mus, lau-|da- mus, at\-|* que be- ne-|di\- * * * ci-|mus:|
 z16 | z16 | F8 E8 | A6 A2 G4 c4 | (B2 A2 A8) ^G4 | A4 A8 B4 | c6 c2 A4 E4 | F4 G6 G2 E4 | %48
w: ||ti- bi|glo- ri- a in|sae\- * * cu-|la, ti- bi|glo- ri- a, ti-|bi glo- ri- a,|
 A8 B4 c4- | c2 c2 A8 G4 | (A2 B2 c2 A2 B4) B4 | A8 z4 G4 | (d6 c2 B4) B4 | A16- | A16 | A16 |] %56
w: ti- bi glo\-|* ri- a in|sae\- * * * * cu-|la, in|sae\- * * cu-|la.|||
V:4
 z16 | z16 | z8 A,,8- | A,,8 (C,8 | D,8) C,8 | F,8 D,4 (F,4- | F,2 G,2 A,4) (A,6 G,2 | %7
w: ||Te|* De\-|* um|Pa- trem in\-|* * * ge\- *|
 F,4) F,4 E,8 | z4 A,,4 E,6 E,2 | E,8 D,4 C,4 | B,,4 B,,4 A,,8 | z16 | z8 E,8 | F,6 F,2 F,8 | %14
w: * ni- tum,|te Fi- li-|um u- ni-|ge- ni- tum,||te|Spi- ri- tum|
 A,8 G,4 F,4 | E,4 D,4 C,8- | C,8 z8 | z16 | z16 | C,16 | G,,16 | z8 (C,8- | C,4 B,,2 A,,2 B,,8) | %23
w: san- ctum Pa-|ra- cli- tum,||||san-|ctam,|san\-||
 C,8 z4 C,4 | C,4 C,4 F,8- | F,4 F,4 C,4 G,4- | G,4 F,4 E,8 | A,,4 A,8 A,4 | D,8 A,4 G,4- | %29
w: ctam et|in- di- vi\-|* du- am Tri\-|* ni- ta-|tem, to- to|cor- de to\-|
 G,4 G,4 C,8 | G,4 G,4 A,4 E,4 | z16 | z4 G,4 A,4 E,4 | F,8 F,4 (A,4- | A,4 ^G,4) A,4 A,4 | %35
w: * to cor-|de et o- re,||et o- re|con- fi- te\-|* * mur, lau-|
 D,8 E,4 A,4 | D,8 E,4 F,4- | F,4 D,4 E,4 C,4 | G,12 G,4 | C,16 | z16 | z4 F,8 E,4 | %42
w: da- mus, lau-|da- mus, at\-|* que be- ne-|di- ci-|mus:||ti- bi|
 D,6 D,2 C,4 C,4- | C,4 D,4 E,6 E,2 | D,4 C,4 D,4 E,4 | A,,8 z8 | z8 z4 A,,4- | A,,4 B,,4 C,6 C,2 | %48
w: glo- ri- a ti\-|* bi glo- ri-|a in sae- cu-|la,|ti\-|* bi glo- ri-|
 A,,8 z4 C,4- | C,4 D,4 E,6 E,2 | D,4 C,4 D,4 E,4 | A,,8 C,8 | D,8 E,8 | A,,4 A,,4 (A,6 G,2 | %54
w: a, ti\-|* bi glo- ri-|a in sae- cu-|la, in|sae- cu-|la, in sae\- *|
 F,2 E,2 D,8) D,4 | A,,16 |] %56
w: * * * cu-|la.|

